packages/bezier-icons/icons/heading-3.svg

<svg width="24" height="24" viewBox="0 0 24 24" fill="none" xmlns="http://www.w3.org/2000/svg">
<path fill-rule="evenodd" clip-rule="evenodd" d="M4.5 5C4.22386 5 4 5.22386 4 5.5V17.5C4 17.7761 4.22386 18 4.5 18H6C6.27614 18 6.5 17.7761 6.5 17.5V13H11.5V17.5C11.5 17.7761 11.7239 18 12 18H13.5C13.7761 18 14 17.7761 14 17.5V5.5C14 5.22386 13.7761 5 13.5 5H12C11.7239 5 11.5 5.22386 11.5 5.5V10.5H6.5V5.5C6.5 5.22386 6.27614 5 6 5H4.5ZM16.977 15.4077C16.977 15.1812 17.1582 15.0041 17.3843 14.9896C17.5451 14.9793 17.6553 14.9649 17.6939 14.9565C18.6629 14.746 19.0485 14.0138 18.9937 13.6307C18.9524 13.3425 18.5224 12.8362 17.5649 13.0442C17.3208 13.0972 17.0995 13.1922 16.9112 13.3133C16.7719 13.403 16.5829 13.3963 16.4713 13.2738L15.6633 12.3865C15.4774 12.1824 15.4907 11.8632 15.7177 11.7058C16.1327 11.418 16.616 11.2037 17.1404 11.0898C18.7833 10.7329 20.7091 11.4999 20.9735 13.3473C21.1234 14.3945 20.6572 15.3361 19.9096 16C20.6572 16.6639 21.1234 17.6055 20.9735 18.6527C20.7091 20.5001 18.7833 21.2671 17.1404 20.9102C16.616 20.7963 16.1327 20.582 15.7177 20.2942C15.4907 20.1368 15.4774 19.8176 15.6633 19.6135L16.4713 18.7263C16.5829 18.6038 16.7719 18.597 16.9112 18.6867C17.0995 18.8079 17.3208 18.9028 17.5649 18.9558C18.5224 19.1638 18.9524 18.6575 18.9937 18.3693C19.0485 17.9862 18.6629 17.254 17.6939 17.0435C17.6553 17.0351 17.5452 17.0208 17.3843 17.0104C17.1582 16.9959 16.977 16.8188 16.977 16.5923V15.4077Z" fill="#313234"/>
</svg>

<svg xmlns="http://www.w3.org/2000/svg" width="24" height="24" fill="none" viewBox="0 0 24 24"><path fill="#313234" fill-rule="evenodd" d="M4.5 5a.5.5 0 0 0-.5.5v12a.5.5 0 0 0 .5.5H6a.5.5 0 0 0 .5-.5V13h5v4.5a.5.5 0 0 0 .5.5h1.5a.5.5 0 0 0 .5-.5v-12a.5.5 0 0 0-.5-.5H12a.5.5 0 0 0-.5.5v5h-5v-5A.5.5 0 0 0 6 5zm12.477 10.408c0-.227.181-.404.407-.418.161-.01.271-.025.31-.034.969-.21 1.355-.942 1.3-1.325-.042-.289-.472-.795-1.43-.587a2 2 0 0 0-.653.27c-.14.089-.328.082-.44-.04l-.808-.887c-.186-.205-.172-.524.055-.681a4 4 0 0 1 1.422-.616c1.643-.357 3.57.41 3.834 2.257.15 1.048-.317 1.99-1.064 2.653.747.664 1.213 1.605 1.064 2.653-.265 1.847-2.19 2.614-3.834 2.257a4 4 0 0 1-1.422-.616c-.227-.157-.24-.476-.055-.68l.808-.888c.112-.122.3-.129.44-.04.188.122.41.217.654.27.957.208 1.387-.299 1.429-.587.055-.383-.331-1.115-1.3-1.325a3 3 0 0 0-.31-.034.425.425 0 0 1-.407-.418z" clip-rule="evenodd"/></svg>
